src/lib/packages/icons/src/assets/line/volume-low.svg

<svg width="24" height="24" viewBox="0 0 24 24" fill="none" xmlns="http://www.w3.org/2000/svg">
<path d="M13.323 21.7511C12.764 21.7511 12.215 21.5542 11.765 21.1732L8.07397 18.046C7.84897 17.855 7.56199 17.7501 7.26599 17.7501H5.49902C4.25902 17.7501 3.24902 16.7411 3.24902 15.5001V8.50106C3.24902 7.26006 4.25902 6.25106 5.49902 6.25106H7.26599C7.56199 6.25106 7.84895 6.14617 8.07495 5.95517L11.766 2.82797C12.494 2.21097 13.482 2.07809 14.347 2.47909C15.212 2.88009 15.749 3.72114 15.749 4.67514V19.328C15.749 20.282 15.212 21.123 14.347 21.524C14.018 21.676 13.669 21.7511 13.323 21.7511ZM5.5 7.75009C5.087 7.75009 4.75 8.08609 4.75 8.50009V15.4991C4.75 15.9131 5.087 16.2491 5.5 16.2491H7.26697C7.91697 16.2491 8.54795 16.48 9.04395 16.901L12.735 20.0282C13.015 20.2652 13.3819 20.317 13.7159 20.161C14.0499 20.006 14.249 19.694 14.249 19.326V4.67318C14.249 4.30518 14.0499 3.99298 13.7159 3.83798C13.3819 3.68298 13.015 3.73303 12.736 3.97103L9.04395 7.09799C8.54795 7.51799 7.91697 7.75009 7.26697 7.75009H5.5ZM18.767 16.7711C20.046 15.4981 20.75 13.8031 20.75 12.0001C20.75 10.1971 20.046 8.50209 18.767 7.22909C18.473 6.93709 17.9981 6.93704 17.7061 7.23104C17.4131 7.52404 17.415 8.00008 17.708 8.29208C18.702 9.28208 19.25 10.6001 19.25 12.0011C19.25 13.4021 18.702 14.72 17.708 15.71C17.415 16.002 17.4131 16.4771 17.7061 16.7711C17.8521 16.9181 18.0451 16.992 18.2371 16.992C18.4291 16.99 18.62 16.9171 18.767 16.7711Z" fill="currentColor"/>
</svg>

<svg xmlns="http://www.w3.org/2000/svg" width="24" height="24" fill="none"><path fill="currentColor" d="M13.323 21.751a2.403 2.403 0 0 1-1.558-.578l-3.691-3.127a1.25 1.25 0 0 0-.808-.296H5.499a2.253 2.253 0 0 1-2.25-2.25V8.501c0-1.24 1.01-2.25 2.25-2.25h1.767c.296 0 .583-.105.809-.296l3.691-3.127a2.394 2.394 0 0 1 2.581-.349 2.396 2.396 0 0 1 1.402 2.196v14.653c0 .954-.537 1.795-1.402 2.196a2.44 2.44 0 0 1-1.024.227Zm-7.823-14a.75.75 0 0 0-.75.75v6.998c0 .414.337.75.75.75h1.767c.65 0 1.28.231 1.777.652l3.691 3.127c.28.237.647.289.98.133a.9.9 0 0 0 .534-.835V4.673a.9.9 0 0 0-.533-.835.896.896 0 0 0-.98.133L9.044 7.098a2.754 2.754 0 0 1-1.777.652H5.5Zm13.267 9.02a6.687 6.687 0 0 0 1.983-4.77 6.687 6.687 0 0 0-1.983-4.772.75.75 0 1 0-1.059 1.063 5.202 5.202 0 0 1 1.542 3.71 5.202 5.202 0 0 1-1.542 3.708.75.75 0 1 0 1.059 1.061Z"/></svg>
